src/images/single-assets/renDGB.svg

<svg xmlns="http://www.w3.org/2000/svg" viewBox="0 0 148 148"><g data-name="Layer 2"><path d="M74 0A74 74 0 1 1 0 74 74 74 0 0 1 74 0m8.84 28.57h-9.73l-3 8h-30.6a4 4 0 0 0-3.37 1.91l-7.63 13.44h57.07A15.1 15.1 0 0 1 91.12 53c3.37 1.4 7.31 4.52 6.36 11.58-1.66 11.84-13.74 32.77-39.9 33.09l13.49-35.19a2.21 2.21 0 0 0-2-3H50.9L29 113.32a109 109 0 0 0 11.39.51l-2.16 5.66h10a2 2 0 0 0 1.85-1.2l1.9-4.9c1.47-.13 3-.26 4.52-.45l-2.5 6.55h9.86a2 2 0 0 0 1.84-1.2l2.87-7.45c16.35-3.69 34-11.83 44.47-29 20.87-34.49-1.08-43.46-16.28-45L99.32 30a1.07 1.07 0 0 0-.95-1.46h-9.74l-3 8h-4.38L83.8 30a1.08 1.08 0 0 0-.96-1.43" data-name="Layer 1" style="fill:#87888c"/></g></svg>

<svg xmlns="http://www.w3.org/2000/svg" viewBox="0 0 148 148"><defs><style>.cls-1{fill:#87888c;}</style></defs><g id="Layer_2" data-name="Layer 2"><g id="Layer_1-2" data-name="Layer 1"><g id="dgb-icon-grey"><path id="dgb" class="cls-1" d="M74,0A74,74,0,1,1,0,74,74,74,0,0,1,74,0Zm8.84,28.57H73.11l-3,8H39.51a4,4,0,0,0-3.37,1.91L28.51,51.92H85.58A15.09,15.09,0,0,1,91.12,53c3.37,1.4,7.31,4.52,6.36,11.58-1.66,11.84-13.74,32.77-39.9,33.09L71.07,62.48a2.21,2.21,0,0,0-2-3H50.9L29,113.32a109.19,109.19,0,0,0,11.39.51l-2.16,5.66h10a2,2,0,0,0,1.85-1.2l1.9-4.9c1.47-.13,3-.26,4.52-.45L54,119.49h9.86a2,2,0,0,0,1.84-1.2l2.87-7.45c16.35-3.69,34-11.83,44.47-29,20.87-34.49-1.08-43.46-16.28-45L99.32,30a1.07,1.07,0,0,0-.95-1.46H88.63l-3,8H81.25L83.8,30A1.08,1.08,0,0,0,82.84,28.57Z"/></g></g></g></svg>
